humanity-icon-theme/Humanity/animations/24/brasero-disc-55.svg

<?xml version="1.0" encoding="UTF-8" standalone="no"?>
<!-- Created with Inkscape (http://www.inkscape.org/) -->
<svg
   xmlns:svg="http://www.w3.org/2000/svg"
   xmlns="http://www.w3.org/2000/svg"
   xmlns:xlink="http://www.w3.org/1999/xlink"
   version="1.0"
   width="24"
   height="24"
   id="svg2">
  <defs
     id="defs4">
    <linearGradient
       id="linearGradient3587-6-5">
      <stop
         id="stop3589-9-2"
         style="stop-color:#000000;stop-opacity:1"
         offset="0" />
      <stop
         id="stop3591-7-4"
         style="stop-color:#363636;stop-opacity:1"
         offset="1" />
    </linearGradient>
    <linearGradient
       x1="15.669166"
       y1="-2.6219723"
       x2="15.669166"
       y2="11.969362"
       id="linearGradient2399"
       xlink:href="#linearGradient3587-6-5"
       gradientUnits="userSpaceOnUse"
       gradientTransform="matrix(0.9302326,0,0,1.2359551,-10.575969,6.1536003)" />
    <linearGradient
       x1="35.007519"
       y1="23.178743"
       x2="35.007519"
       y2="4.9945626"
       id="linearGradient2402"
       xlink:href="#linearGradient3587-6-5"
       gradientUnits="userSpaceOnUse"
       gradientTransform="translate(-24.785715,-2.035714)" />
    <linearGradient
       x1="15.669166"
       y1="-2.6219723"
       x2="15.669166"
       y2="11.969362"
       id="linearGradient2449"
       xlink:href="#linearGradient3587-6-5"
       gradientUnits="userSpaceOnUse"
       gradientTransform="matrix(0.9302326,0,0,1.2359551,-10.575969,6.1536003)" />
    <linearGradient
       x1="35.007519"
       y1="23.178743"
       x2="35.007519"
       y2="4.9945626"
       id="linearGradient2460"
       xlink:href="#linearGradient3587-6-5"
       gradientUnits="userSpaceOnUse"
       gradientTransform="translate(-24.785715,-2.035714)" />
    <linearGradient
       x1="15.669166"
       y1="-2.6219723"
       x2="15.669166"
       y2="11.969362"
       id="linearGradient2420"
       xlink:href="#linearGradient3587-6-5"
       gradientUnits="userSpaceOnUse"
       gradientTransform="matrix(0.9302326,0,0,1.2359551,-29.0338,-0.5632672)" />
    <linearGradient
       x1="35.007519"
       y1="23.178743"
       x2="35.007519"
       y2="4.9945626"
       id="linearGradient2423"
       xlink:href="#linearGradient3587-6-5"
       gradientUnits="userSpaceOnUse"
       gradientTransform="translate(-43.243546,-8.7525815)" />
    <linearGradient
       x1="35.007519"
       y1="23.178743"
       x2="35.007519"
       y2="4.9945626"
       id="linearGradient2430"
       xlink:href="#linearGradient3587-6-5"
       gradientUnits="userSpaceOnUse"
       gradientTransform="translate(-43.243546,-8.7525815)" />
    <linearGradient
       x1="15.669166"
       y1="-2.6219723"
       x2="15.669166"
       y2="11.969362"
       id="linearGradient2432"
       xlink:href="#linearGradient3587-6-5"
       gradientUnits="userSpaceOnUse"
       gradientTransform="matrix(0.9302326,0,0,1.2359551,-29.0338,-0.5632672)" />
    <linearGradient
       x1="15.669166"
       y1="-2.6219723"
       x2="15.669166"
       y2="11.969362"
       id="linearGradient2435"
       xlink:href="#linearGradient3587-6-5"
       gradientUnits="userSpaceOnUse"
       gradientTransform="matrix(-0.9302326,0,0,-1.2359551,16.118138,11.129533)" />
    <linearGradient
       x1="35.007519"
       y1="23.178743"
       x2="35.007519"
       y2="4.9945626"
       id="linearGradient2438"
       xlink:href="#linearGradient3587-6-5"
       gradientUnits="userSpaceOnUse"
       gradientTransform="matrix(-1,0,0,-1,30.327884,19.318847)" />
    <linearGradient
       x1="35.007519"
       y1="23.178743"
       x2="35.007519"
       y2="4.9945626"
       id="linearGradient2452"
       xlink:href="#linearGradient3587-6-5"
       gradientUnits="userSpaceOnUse"
       gradientTransform="matrix(-1,0,0,-1,30.327884,19.318847)" />
    <linearGradient
       x1="15.669166"
       y1="-2.6219723"
       x2="15.669166"
       y2="11.969362"
       id="linearGradient2454"
       xlink:href="#linearGradient3587-6-5"
       gradientUnits="userSpaceOnUse"
       gradientTransform="matrix(-0.9302326,0,0,-1.2359551,16.118138,11.129533)" />
    <linearGradient
       x1="15.669166"
       y1="-2.6219723"
       x2="15.669166"
       y2="11.969362"
       id="linearGradient2457"
       xlink:href="#linearGradient3587-6-5"
       gradientUnits="userSpaceOnUse"
       gradientTransform="matrix(-0.9302326,0,0,-1.2359551,34.575969,17.8464)" />
    <linearGradient
       x1="35.007519"
       y1="23.178743"
       x2="35.007519"
       y2="4.9945626"
       id="linearGradient2461"
       xlink:href="#linearGradient3587-6-5"
       gradientUnits="userSpaceOnUse"
       gradientTransform="matrix(-1,0,0,-1,48.785715,26.035714)" />
    <linearGradient
       x1="35.007519"
       y1="23.178743"
       x2="35.007519"
       y2="4.9945626"
       id="linearGradient2463"
       xlink:href="#linearGradient3587-6-5"
       gradientUnits="userSpaceOnUse"
       gradientTransform="translate(-24.785715,-2.035714)" />
    <linearGradient
       x1="15.669166"
       y1="-2.6219723"
       x2="15.669166"
       y2="11.969362"
       id="linearGradient2465"
       xlink:href="#linearGradient3587-6-5"
       gradientUnits="userSpaceOnUse"
       gradientTransform="matrix(0.9302326,0,0,1.2359551,-10.575969,6.1536003)" />
    <linearGradient
       x1="15.669166"
       y1="-2.6219723"
       x2="15.669166"
       y2="11.969362"
       id="linearGradient2468"
       xlink:href="#linearGradient3587-6-5"
       gradientUnits="userSpaceOnUse"
       gradientTransform="matrix(0.9302326,0,0,1.2359551,-10.575969,6.1536003)" />
    <linearGradient
       x1="35.007519"
       y1="23.178743"
       x2="35.007519"
       y2="4.9945626"
       id="linearGradient2471"
       xlink:href="#linearGradient3587-6-5"
       gradientUnits="userSpaceOnUse"
       gradientTransform="translate(-24.785715,-2.035714)" />
  </defs>
  <path
     d="M 12,5 C 7.5840001,5 3.9999998,8.5840001 4,13 C 4,17.416 7.5840002,21 12,21 C 16.416,21 20,17.416 20,13 C 20,8.5840001 16.416,5.0000002 12,5 z M 12,10 C 13.656,10 15,11.344 15,13 C 15,14.656 13.656,16 12,16 C 10.344,16 9,14.656 9,13 C 9.0000001,11.344 10.344,10 12,10 z"
     id="path3229"
     style="opacity:0.6;fill:#ffffff;fill-opacity:1;fill-rule:evenodd;stroke:none;stroke-width:1;stroke-linecap:butt;stroke-linejoin:miter;marker:none;marker-start:none;marker-mid:none;marker-end:none;stroke-miterlimit:4;stroke-dasharray:none;stroke-dashoffset:0;stroke-opacity:1;visibility:visible;display:inline;overflow:visible;enable-background:accumulate" />
  <path
     d="M 12,4 C 7.5840001,4 3.9999998,7.5840001 4,12 C 4,15.56385 6.3404892,18.560166 9.5625,19.59375 L 11.15625,14.84375 C 9.9207586,14.472613 9,13.35585 9,12 C 9.0000001,10.344 10.344,9 12,9 L 12,4 z M 9.90625,19.71875 C 10.162656,19.788073 10.421598,19.86249 10.6875,19.90625 C 10.420479,19.862832 10.164094,19.788565 9.90625,19.71875 z M 10.8125,19.90625 C 11.200127,19.964032 11.59637,20 12,20 C 11.595261,20 11.199847,19.963077 10.8125,19.90625 z"
     id="path3170"
     style="opacity:0.41999996;fill:url(#linearGradient2471);fill-opacity:1;fill-rule:evenodd;stroke:none;stroke-width:1;stroke-linecap:butt;stroke-linejoin:miter;marker:none;marker-start:none;marker-mid:none;marker-end:none;stroke-miterlimit:4;stroke-dasharray:none;stroke-dashoffset:0;stroke-opacity:1;visibility:visible;display:inline;overflow:visible;enable-background:accumulate" />
  <path
     d="M 12,4 L 12,9 C 13.656,9.0000001 15,10.344 15,12 C 15,13.656 13.656,15 12,15 C 11.704235,15 11.425652,14.924092 11.15625,14.84375 L 9.5625,19.625 C 10.332845,19.872009 11.148169,20 12,20 C 16.416,20 20,16.416 20,12 C 20,7.5840001 16.416,4.0000002 12,4 z"
     id="path3288"
     style="opacity:0.7;fill:url(#linearGradient2468);fill-opacity:1;fill-rule:nonzero;stroke:none;stroke-width:1;stroke-linecap:butt;stroke-linejoin:miter;marker:none;marker-start:none;marker-mid:none;marker-end:none;stroke-miterlimit:4;stroke-dasharray:none;stroke-dashoffset:0;stroke-opacity:1;visibility:visible;display:inline;overflow:visible;enable-background:accumulate" />
</svg>

<?xml version="1.0" encoding="UTF-8" standalone="no"?>
<!-- Created with Inkscape (http://www.inkscape.org/) -->
<svg id="svg2" xmlns="http://www.w3.org/2000/svg" height="24" width="24" version="1.0" xmlns:xlink="http://www.w3.org/1999/xlink">
 <defs id="defs4">
  <linearGradient id="linearGradient3587-6-5">
   <stop id="stop3589-9-2" offset="0"/>
   <stop id="stop3591-7-4" style="stop-color:#363636" offset="1"/>
  </linearGradient>
  <linearGradient id="linearGradient2468" y2="11.969" xlink:href="#linearGradient3587-6-5" gradientUnits="userSpaceOnUse" x2="15.669" gradientTransform="matrix(.93023 0 0 1.236 -10.576 6.1536)" y1="-2.622" x1="15.669"/>
  <linearGradient id="linearGradient2471" y2="4.9946" xlink:href="#linearGradient3587-6-5" gradientUnits="userSpaceOnUse" x2="35.008" gradientTransform="translate(-24.786 -2.0357)" y1="23.179" x1="35.008"/>
 </defs>
 <path id="path3229" style="opacity:.6;fill-rule:evenodd;fill:#fff" d="m12 5c-4.416 0-8 3.584-8 8s3.584 8 8 8 8-3.584 8-8-3.584-8-8-8zm0 5c1.656 0 3 1.344 3 3s-1.344 3-3 3-3-1.344-3-3 1.344-3 3-3z"/>
 <path id="path3170" style="opacity:0.42;fill-rule:evenodd;fill:url(#linearGradient2471)" d="m12 4c-4.416 0-8 3.584-8 8 0 3.564 2.3405 6.56 5.5625 7.594l1.5935-4.75c-1.2352-0.371-2.156-1.488-2.156-2.844 0-1.656 1.344-3 3-3v-5zm-2.0938 15.719c0.2568 0.069 0.5158 0.143 0.7818 0.187-0.268-0.043-0.524-0.117-0.7818-0.187zm0.9058 0.187c0.388 0.058 0.784 0.094 1.188 0.094-0.405 0-0.8-0.037-1.188-0.094z"/>
 <path id="path3288" style="opacity:.7;fill:url(#linearGradient2468)" d="m12 4v5c1.656 0 3 1.344 3 3s-1.344 3-3 3c-0.296 0-0.574-0.076-0.844-0.156l-1.5935 4.781c0.7705 0.247 1.5855 0.375 2.4375 0.375 4.416 0 8-3.584 8-8s-3.584-8-8-8z"/>
</svg>
